X:1
T: Roland's Return
C:
R:Jig
Q:180
K:Dm
M:6/8
L:1/16
DE|:F2E2F2 A2F2F2|c2F2F2 A2F2F2|G4A2 B2c2d2|f2e2d2 c2A2G2|
F2E2F2 A2F2F2|c2F2F2 A2F2F2|G4A2 B2A2G2|1A2F2D2 D4DE:|2A2F2D2 D4(3A=B^c|
|:d4e2 f2e2d2|e2^c2A2 A2=B2c2|d4e2 f2e2d2|a2g2f2 g2f2e2|
d4e2 f2e2d2|e2^c2A2 A2G2F2|G4A2 B2A2G2|1A2F2D2 D4A2:|2A2F2D2 D4||
